X: 38164
T: Sporting Pitchfork, The
R: jig
M: 6/8
K: Dmixolydian
|F3 E3|FEF DEF|G3 AGA|cAG FGA|
B/c/dB BAG|ABA ABc|dcA AGF|AGF G3|
F3 EAG|FGA dAF|G3 AGA|cAG FGA|
B3 BAG|A3 ABc|dcA AGF|AGF G3||
d2e fed|g2f def|g2a bag|fdc dcA|
B/c/dB BAG|A3 ABc|dcA AGF|AGF G3|
d2e f2d|g2f daf|g2a bag|fdc dcA|
B3 BAG|A3 DFA|dcA AGF|AGF G3||

